lipstick.svg

<svg fill="currentColor" viewBox="0 0 24 24"><path d="M9 23c-.55 0-1-.45-1-1v-9c0-.55.45-1 1-1h6c.55 0 1 .45 1 1v9c0 .55-.45 1-1 1zm1-12c-.55 0-1-.45-1-1V5.25S11 3 11.75 1c1.08.67 2.17 1.33 2.71 2.83S15 7.67 15 10c0 .55-.45 1-1 1z"/></svg>

<svg  viewBox="0 0 24 24" fill="currentColor"><path  d="M9 23C8.45 23 8 22.55 8 22V13C8 12.45 8.45 12 9 12H15C15.55 12 16 12.45 16 13V22C16 22.55 15.55 23 15 23H9M10 11C9.45 11 9 10.55 9 10V5.25C9 5.25 11 3 11.75 1C12.83 1.67 13.92 2.33 14.46 3.83C15 5.33 15 7.67 15 10C15 10.55 14.55 11 14 11H10Z"/></svg>
